X:121
T: Gusu fengguang(Da jiulianhuan)
N: C0169B
O: China,Jiangsu, Suzhou
S: III, 494]
N: Hier sind viele Weisen zusammengetragen. Wird von Streich-, Matouqin)
N: und Zupfinstrumenten begleitet. Die Saengerin imitiert die
N: Zwischenspiele. Charakter der Lokaloper. Saengerin: Huang Bai
N: +++Dieses Lied wurde GETEILT!! Der 2. u. 3. Teil folgt unter gleicher
N: Signatur. Mehrere Verzierungen. Vor- und Zwischenspiele weggelassen.
R: Xiaodiao, Shidiao, Liuhua liujie diao, Xianhua diao]
M: 2/4
L: 1/32
K: D
e4f2e2d8 | f2e4f2d2e2A2B2 | A2F2E4F4A4 | B2ABd2B2-B8 |
d4f2e2e2d2B2d2 | A12d2B2 | d4A8
B2A2 | F6E2D2E2B,2D2 | E12
F4 | A6F2d4e2d2 | B6A2F8 | A2F2B2d2B2A2F2A2 | D4B,4E8 |
F6d2F4A4 | d2d6B2A2A2F2 | A12B2A2 | F6E2D4B,2D2 | E8z8 |
A6F2d4e2d2 | B2d2B2A2A6F2 | E4F2A2E2F2D4 | D4B,12 |
e8d4e2d2 | B3dB2A2F2A2F4 |
B4d4B4d4 | f2e4f2e2d2B2d2 | A16 |
F4F2A2B4e4 | d2B2A4z4d2B2A2F2A4
A2B2d2e2B2A2A2F2 | F2E2D4E8 |
B4B2A2B4d4 | F2A2B2d2A8 |
A2B2d2e2B2A2A2F2 | F2E2D4E8 |
A2F2A4z4F2A2 | B2A2d2B2B2A2A2F2 | A4A2E2F2E2A4 | D6E2D8 |
f2e4f2d2e2d2B2 | A2B2d2f2e2d2B2d2 | A16

@@@ Tune index: 6122
